COLOR/action 16/16/text-x-generic-template.svg

<svg height="16" viewBox="0 0 4.233125 4.233125" width="16" xmlns="http://www.w3.org/2000/svg"><path d="m.40112006.7394533c-.003087.0745438-.00462.15633267-.004153.25113512v.002066 1.13837568 1.1378591c-.00101.2040388.004647.3612496.0238824.4764332.0192384.1151836.0496719.1849336.0976107.2325324.047939.047599.11979702.077781.23571899.097147.1159217.019364.27197055.025838.47662975.025838h1.704549c.2046601 0 .3605335-.00648.4761106-.025838.1155775-.019356.1864411-.049572.2341618-.097147.047722-.047575.080255-.1172438.099687-.2325324.019436-.1152881.02596-.2723256.02596-.4764329v-1.1378584-1.13837576c0-.0952487-.0017-.17793628-.00519-.25320204z" fill="#f7f7f7"/><path d="m.40112006.7394533c-.003087.0745438-.00462.15633267-.004153.25113512v.002066 1.13837568 1.1378591c-.00101.2040388.004647.3612496.0238824.4764332.0192384.1151836.0496719.1849336.0976107.2325324.047939.047599.11979702.077781.23571899.097147.1159217.019364.27197055.025838.47662975.025838h1.704549c.2046601 0 .3605335-.00648.4761106-.025838.1155775-.019356.1864411-.049572.2341618-.097147.047722-.047575.080255-.1172438.099687-.2325324.019436-.1152881.02596-.2723256.02596-.4764329v-1.1378584-1.13837576c0-.0952487-.0017-.17793628-.00519-.25320204z" fill="#f7f7f7"/><g transform="translate(-3.897196 -.068739)"><path d="m6.0484086 1.5465169v.1406953h1.406953v-.1406953zm0 .5627811v.1406952h1.406953v-.1406952zm.2813905.5627811v.1406951h1.1255625v-.1406951zm-1.6883433.5627811v.1406953h2.8139058v-.1406953z" fill="#c8c4b7" fill-opacity=".996078"/><path d="m599.875 119-4.625 12h-1.156v1h3.593v-1h-1.343l1.093-3h5.469l1.063 3h-1.282v1h4.594v-1h-1.281l-4.656-12zm.281 2.094 2.406 5.906h-4.781z" fill="#5d5d5d" stroke-width="2.6" transform="matrix(.10822713 0 0 .10822713 -59.655634 -11.473207)"/><path d="m5.1382661.21314813c-.2036871.00000002-.3589962.006471-.4743664.025837-.1153701.0193663-.1868885.0516151-.2345995.0992139s-.078001.11734871-.097147.23253252c-.01915.11518375-.024769.27032386-.023769.47436635v.00207.1255675h3.358285v-.1255707c0-.20410669-.0065-.36114501-.025837-.47643325-.0193397-.11528828-.0517195-.18495732-.0992135-.23253251-.0474947-.0475753-.1180211-.07985647-.2330492-.09921387-.115028-.01935829-.2701622-.02583695-.4738496-.02583695z" fill="#f76363" stroke-width="1.234745"/><path d="m4.6914062.54492188c-.7698788.00000007-1.3569024.02445831-1.7929687.09765624-.4360659.07319907-.7063848.19509017-.8867187.37499998-.180334.1799099-.2948212.4435445-.3671876.8789063-.0723815.4353616-.0936234 1.0217466-.0898437 1.7929687v.0078125.4746094c-.0032685-.7603748.0181527-1.3422292.0898437-1.7734375.0723664-.4353618.1868536-.6989964.3671876-.8789063.1803339-.1799098.4506528-.3018009.8867187-.375.4360663-.0731979 1.0230899-.0976561 1.7929687-.0976562h6.4121098c.76988 0 1.356242.0244875 1.791015.0976562.434774.0731655.701343.195179.88086.375.179513.1798206.301901.4431496.375.8789063.072116.42996.097007 1.0169016.097656 1.7734375v-.4746094c0-.7714648-.024568-1.3650247-.097656-1.8007812-.073099-.4357567-.195487-.6990857-.375-.8789063-.179517-.17982098-.446086-.30183455-.88086-.37499998-.434773-.07316879-1.021135-.09765624-1.791015-.09765624z" fill="#fbfbfb" opacity=".3" stroke-width="4.666982" transform="matrix(.26457031 0 0 .26457031 3.897196 .068739)"/></g><path d="m1.2410701.0000001c-.2061862 0-.36629172.003774-.49788777.0258643-.13159603.0220901-.236221.0639715-.31252702.14009832-.0763061.0761269-.11821937.18090311-.14009833.31252702-.021879.1316239-.026875.29337956-.0258643.50004323v1.13802943 1.1380294c-.001014.2066639.003986.3684191.0258643.5000433.0218784.1316241.0637915.2364002.14009833.312527.0763068.076127.18093017.115853.31252702.1379429.13159685.02209.29170157.02802.49788777.02802h1.6962673c.2061869 0 .3687322-.00593.5000433-.02802.1313112-.022097.2343512-.061794.3103716-.1379429.076021-.076149.118036-.1810067.1400984-.312527.022062-.1315204.025864-.2934422.025864-.5000433v-1.1380294-1.13802942c0-.20660034-.0038-.36852297-.025864-.50004323-.0220627-.13152026-.0640777-.2363777-.1400984-.31252702-.0760205-.07614933-.1790605-.11800073-.3103716-.14009832-.131311-.0220976-.2938572-.02586431-.5000433-.02586431zm0 .14440903h1.6962673c.2036874 0 .359151.006506.474179.0258643.1150281.0193574.185284.0515713.2327787.0991466.047494.0475752.079807.11749048.099147.23277874.01934.11528825.025864.27222761.025864.47633428v1.13802945 1.1380294c0 .2041073-.00652.3610458-.025864.4763342-.01934.1152885-.051652.1852039-.099147.2327788-.047494.047575-.1177505.077634-.2327787.096991s-.2704908.025865-.474179.025865h-1.6962673c-.2036872 0-.35880762-.0065-.47417883-.025865-.11537123-.0193663-.18722266-.0493922-.23493411-.0969911-.04771143-.0475988-.07784547-.1175952-.09699114-.2327787-.01914566-.1151835-.02470976-.2722954-.02370895-.4763343v-1.1380294-1.13802942-.00215191c-.00099793-.20404243.00456274-.35899859.02370895-.47418237.01914622-.1151838.04928034-.18517999.09699114-.23277875.04771082-.04759877.11956386-.07978017.23493411-.09914651.11537021-.01936633.27049163-.02586431.47417883-.02586431z" fill="#8d8f8a"/><path d="m.4128806 3.1233765v.1322852c-.001005.2040387.004513.3612496.0236571.4764332.019147.1151836.0494886.1849335.0971998.2325324.0477113.047599.11914243.077781.23451387.097147.11537117.019364.27099753.025837.47468483.025837h1.6966256c.2036883 0 .3586282-.00648.4736563-.025837.1150286-.019356.185477-.049572.2329711-.097147.047495-.047575.079918-.1172438.099257-.2325324.019344-.1152881.025714-.272326.025714-.4764332v-.1322852c0 .2041073-.00637.3611451-.025714.4764332-.01934.1152886-.051762.1849574-.099257.2325324-.047494.047575-.1179425.077791-.2329711.097147-.1150281.019358-.2699681.025837-.4736563.025837h-1.6966255c-.2036873 0-.35931372-.00647-.47468489-.025837-.11537145-.0193659-.18680254-.0495479-.23451387-.097147-.04771115-.0475988-.07805279-.1173488-.09719982-.2325324-.01914407-.1151836-.02466231-.2723944-.02365712-.4764332z" opacity=".2"/></svg>

<?xml version="1.0" encoding="UTF-8" standalone="no"?>
<svg
   xmlns:dc="http://purl.org/dc/elements/1.1/"
   xmlns:cc="http://creativecommons.org/ns#"
   xmlns:rdf="http://www.w3.org/1999/02/22-rdf-syntax-ns#"
   xmlns:svg="http://www.w3.org/2000/svg"
   xmlns="http://www.w3.org/2000/svg"
   xmlns:sodipodi="http://sodipodi.sourceforge.net/DTD/sodipodi-0.dtd"
   xmlns:inkscape="http://www.inkscape.org/namespaces/inkscape"
   height="16"
   viewBox="0 0 4.233125 4.233125"
   width="16"
   version="1.1"
   id="svg33"
   sodipodi:docname="text-x-generic-template.svg"
   inkscape:version="0.92.4 (5da689c313, 2019-01-14)">
  <metadata
     id="metadata39">
    <rdf:RDF>
      <cc:Work
         rdf:about="">
        <dc:format>image/svg+xml</dc:format>
        <dc:type
           rdf:resource="http://purl.org/dc/dcmitype/StillImage" />
      </cc:Work>
    </rdf:RDF>
  </metadata>
  <defs
     id="defs37" />
  <sodipodi:namedview
     pagecolor="#ffffff"
     bordercolor="#808080"
     borderopacity="1"
     objecttolerance="10"
     gridtolerance="10"
     guidetolerance="10"
     inkscape:pageopacity="0"
     inkscape:pageshadow="2"
     inkscape:window-width="1920"
     inkscape:window-height="1016"
     id="namedview35"
     showgrid="false"
     inkscape:zoom="52.437501"
     inkscape:cx="7.8963603"
     inkscape:cy="7.9999998"
     inkscape:window-x="0"
     inkscape:window-y="27"
     inkscape:window-maximized="1"
     inkscape:current-layer="svg33" />
  <linearGradient
     id="a"
     gradientUnits="userSpaceOnUse"
     x1="328"
     x2="328"
     y1="237"
     y2="251">
    <stop
       offset="0"
       stop-color="#fff"
       id="stop2" />
    <stop
       offset=".125"
       stop-color="#fff"
       stop-opacity=".098039"
       id="stop4" />
    <stop
       offset=".92500001"
       stop-color="#fff"
       stop-opacity=".098039"
       id="stop6" />
    <stop
       offset="1"
       stop-color="#fff"
       stop-opacity=".498039"
       id="stop8" />
  </linearGradient>
  <clipPath
     id="b">
    <path
       d="m325.09646 237c-2.80769 0-3.10979.28839-3.09603 3.10176v3.89824 3.89824c-.0138 2.81337.28834 3.10176 3.09603 3.10176h5.8075c2.8077 0 3.09604-.28835 3.09604-3.10176v-3.89824-3.89824c0-2.8134-.28835-3.10176-3.09604-3.10176z"
       id="path11" />
  </clipPath>
  <linearGradient
     id="c"
     gradientTransform="matrix(0,-0.01052359,0.01052329,0,1.2904489,4.0596976)"
     gradientUnits="userSpaceOnUse"
     x1="459.03448"
     x2="35.310345"
     y1="419.23337"
     y2="207.36522">
    <stop
       offset="0"
       stop-color="#f2f2f2"
       id="stop14" />
    <stop
       offset="1"
       stop-color="#f9f9f9"
       id="stop16" />
  </linearGradient>
  <path
     style="opacity:1;fill:#f7f7f7;fill-opacity:1;stroke:none;stroke-width:0.26520079;stroke-opacity:1"
     d="m 0.40112006,0.7394533 c -0.003087,0.0745438 -0.00462,0.15633267 -0.004153,0.25113512 v 0.002066 1.13837568 1.1378591 c -0.00101,0.2040388 0.004647,0.3612496 0.0238824,0.4764332 0.0192384,0.1151836 0.0496719,0.1849336 0.0976107,0.2325324 0.047939,0.047599 0.11979702,0.077781 0.23571899,0.097147 0.1159217,0.019364 0.27197055,0.025838 0.47662975,0.025838 h 1.704549 c 0.2046601,0 0.3605335,-0.00648 0.4761106,-0.025838 0.1155775,-0.019356 0.1864411,-0.049572 0.2341618,-0.097147 0.047722,-0.047575 0.080255,-0.1172438 0.099687,-0.2325324 0.019436,-0.1152881 0.02596,-0.2723256 0.02596,-0.4764329 V 2.1310311 0.99265534 c 0,-0.0952487 -0.0017,-0.17793628 -0.00519,-0.25320204 z"
     id="rect858"
     inkscape:connector-curvature="0"
     sodipodi:nodetypes="ccccccscsssccscscc" />
  <path
     style="opacity:1;fill:#f7f7f7;fill-opacity:1;stroke:none;stroke-width:0.26520079;stroke-opacity:1"
     d="m 0.40112006,0.7394533 c -0.003087,0.0745438 -0.00462,0.15633267 -0.004153,0.25113512 v 0.002066 1.13837568 1.1378591 c -0.00101,0.2040388 0.004647,0.3612496 0.0238824,0.4764332 0.0192384,0.1151836 0.0496719,0.1849336 0.0976107,0.2325324 0.047939,0.047599 0.11979702,0.077781 0.23571899,0.097147 0.1159217,0.019364 0.27197055,0.025838 0.47662975,0.025838 h 1.704549 c 0.2046601,0 0.3605335,-0.00648 0.4761106,-0.025838 0.1155775,-0.019356 0.1864411,-0.049572 0.2341618,-0.097147 0.047722,-0.047575 0.080255,-0.1172438 0.099687,-0.2325324 0.019436,-0.1152881 0.02596,-0.2723256 0.02596,-0.4764329 V 2.1310311 0.99265534 c 0,-0.0952487 -0.0017,-0.17793628 -0.00519,-0.25320204 z"
     id="path868"
     inkscape:connector-curvature="0"
     sodipodi:nodetypes="ccccccscsssccscscc" />
  <g
     transform="translate(-3.897196 -.068739)"
     id="g31">
    <path
       d="m6.0484086 1.5465169v.1406953h1.406953v-.1406953zm0 .5627811v.1406952h1.406953v-.1406952zm.2813905.5627811v.1406951h1.1255625v-.1406951zm-1.6883433.5627811v.1406953h2.8139058v-.1406953z"
       fill="#c8c4b7"
       fill-opacity=".996078"
       id="path27" />
    <path
       d="m599.875 119-4.625 12h-1.156v1h3.593v-1h-1.343l1.093-3h5.469l1.063 3h-1.282v1h4.594v-1h-1.281l-4.656-12zm.281 2.094 2.406 5.906h-4.781z"
       fill="#5d5d5d"
       stroke-width="2.6"
       transform="matrix(.10822713 0 0 .10822713 -59.655634 -11.473207)"
       id="path29" />
    <path
       style="fill:#f76363;stroke-width:1.23474479"
       d="m 5.1382661,0.21314813 c -0.2036871,2e-8 -0.3589962,0.006471 -0.4743664,0.025837 -0.1153701,0.0193663 -0.1868885,0.0516151 -0.2345995,0.0992139 -0.047711,0.0475988 -0.078001,0.11734871 -0.097147,0.23253252 -0.01915,0.11518375 -0.024769,0.27032386 -0.023769,0.47436635 v 0.00207 0.1255675 h 3.358285 V 1.0471647 c 0,-0.20410669 -0.0065,-0.36114501 -0.025837,-0.47643325 C 7.6214925,0.45544317 7.5891127,0.38577413 7.5416187,0.33819894 7.494124,0.29062364 7.4235976,0.25834247 7.3085695,0.23898507 7.1935415,0.21962678 7.0384073,0.21314812 6.8347199,0.21314812 Z"
       id="path848"
       inkscape:connector-curvature="0"
       sodipodi:nodetypes="ssscccccssccss" />
    <path
       style="fill:#fbfbfb;stroke-width:4.6669817;fill-opacity:1;opacity:0.3"
       d="M 4.6914062 0.54492188 C 3.9215274 0.54492195 3.3345038 0.56938019 2.8984375 0.64257812 C 2.4623716 0.71577719 2.1920527 0.83766829 2.0117188 1.0175781 C 1.8313848 1.197488 1.7168976 1.4611226 1.6445312 1.8964844 C 1.5721497 2.331846 1.5509078 2.918231 1.5546875 3.6894531 L 1.5546875 3.6972656 L 1.5546875 4.171875 C 1.551419 3.4115002 1.5728402 2.8296458 1.6445312 2.3984375 C 1.7168976 1.9630757 1.8313848 1.6994411 2.0117188 1.5195312 C 2.1920527 1.3396214 2.4623716 1.2177303 2.8984375 1.1445312 C 3.3345038 1.0713333 3.9215274 1.0468751 4.6914062 1.046875 L 11.103516 1.046875 C 11.873396 1.046875 12.459758 1.0713625 12.894531 1.1445312 C 13.329305 1.2176967 13.595874 1.3397102 13.775391 1.5195312 C 13.954904 1.6993518 14.077292 1.9626808 14.150391 2.3984375 C 14.222507 2.8283975 14.247398 3.4153391 14.248047 4.171875 L 14.248047 3.6972656 C 14.248047 2.9258008 14.223479 2.3322409 14.150391 1.8964844 C 14.077292 1.4607277 13.954904 1.1973987 13.775391 1.0175781 C 13.595874 0.83775712 13.329305 0.71574355 12.894531 0.64257812 C 12.459758 0.56940933 11.873396 0.54492188 11.103516 0.54492188 L 4.6914062 0.54492188 z "
       transform="matrix(0.26457031,0,0,0.26457031,3.897196,0.068739)"
       id="path851" />
  </g>
  <path
     d="m1.2410701.0000001c-.2061862 0-.36629172.003774-.49788777.0258643-.13159603.0220901-.236221.0639715-.31252702.14009832-.0763061.0761269-.11821937.18090311-.14009833.31252702-.021879.1316239-.026875.29337956-.0258643.50004323v1.13802943 1.1380294c-.001014.2066639.003986.3684191.0258643.5000433.0218784.1316241.0637915.2364002.14009833.312527.0763068.076127.18093017.115853.31252702.1379429.13159685.02209.29170157.02802.49788777.02802h1.6962673c.2061869 0 .3687322-.00593.5000433-.02802.1313112-.022097.2343512-.061794.3103716-.1379429.076021-.076149.118036-.1810067.1400984-.312527.022062-.1315204.025864-.2934422.025864-.5000433v-1.1380294-1.13802942c0-.20660034-.0038-.36852297-.025864-.50004323-.0220627-.13152026-.0640777-.2363777-.1400984-.31252702-.0760205-.07614933-.1790605-.11800073-.3103716-.14009832-.131311-.0220976-.2938572-.02586431-.5000433-.02586431zm0 .14440903h1.6962673c.2036874 0 .359151.006506.474179.0258643.1150281.0193574.185284.0515713.2327787.0991466.047494.0475752.079807.11749048.099147.23277874.01934.11528825.025864.27222761.025864.47633428v1.13802945 1.1380294c0 .2041073-.00652.3610458-.025864.4763342-.01934.1152885-.051652.1852039-.099147.2327788-.047494.047575-.1177505.077634-.2327787.096991s-.2704908.025865-.474179.025865h-1.6962673c-.2036872 0-.35880762-.0065-.47417883-.025865-.11537123-.0193663-.18722266-.0493922-.23493411-.0969911-.04771143-.0475988-.07784547-.1175952-.09699114-.2327787-.01914566-.1151835-.02470976-.2722954-.02370895-.4763343v-1.1380294-1.13802942-.00215191c-.00099793-.20404243.00456274-.35899859.02370895-.47418237.01914622-.1151838.04928034-.18517999.09699114-.23277875.04771082-.04759877.11956386-.07978017.23493411-.09914651.11537021-.01936633.27049163-.02586431.47417883-.02586431z"
     id="path23"
     fill="#8d8f8a" />
  <path
     style="opacity:0.2;fill:#000000;fill-opacity:1;stroke:none;stroke-width:0.2645703;stroke-opacity:1"
     d="m 0.4128806,3.1233765 v 0.1322852 c -0.001005,0.2040387 0.004513,0.3612496 0.0236571,0.4764332 0.019147,0.1151836 0.0494886,0.1849335 0.0971998,0.2325324 0.0477113,0.047599 0.11914243,0.077781 0.23451387,0.097147 0.11537117,0.019364 0.27099753,0.025837 0.47468483,0.025837 h 1.6966256 c 0.2036883,0 0.3586282,-0.00648 0.4736563,-0.025837 0.1150286,-0.019356 0.185477,-0.049572 0.2329711,-0.097147 0.047495,-0.047575 0.079918,-0.1172438 0.099257,-0.2325324 0.019344,-0.1152881 0.025714,-0.272326 0.025714,-0.4764332 V 3.1233765 c 0,0.2041073 -0.00637,0.3611451 -0.025714,0.4764332 -0.01934,0.1152886 -0.051762,0.1849574 -0.099257,0.2325324 -0.047494,0.047575 -0.1179425,0.077791 -0.2329711,0.097147 C 3.29819,3.9488471 3.14325,3.9553261 2.9395618,3.9553261 H 1.2429363 c -0.2036873,0 -0.35931372,-0.00647 -0.47468489,-0.025837 C 0.65287996,3.9101232 0.58144887,3.8799412 0.53373754,3.8323421 0.48602639,3.7847433 0.45568475,3.7149933 0.43653772,3.5998097 0.41739365,3.4846261 0.41187541,3.3274153 0.4128806,3.1233765 Z"
     id="path861"
     inkscape:connector-curvature="0" />
</svg>
